public/twitter.svg

<svg width="47" height="47" viewBox="0 0 47 47" fill="none" xmlns="http://www.w3.org/2000/svg">
<path d="M41.3785 0H5.52778C2.69813 0 0.40625 2.29188 0.40625 5.12153V40.9722C0.40625 43.8019 2.69813 46.0938 5.52778 46.0938H41.3785C44.2081 46.0938 46.5 43.8019 46.5 40.9722V5.12153C46.5 2.29188 44.2081 0 41.3785 0ZM36.385 16.6808C36.385 16.901 36.385 17.1187 36.385 17.5592C36.385 25.8996 30.0189 35.5588 18.3854 35.5588C14.8746 35.5588 11.5814 34.4602 8.72873 32.7061C9.16662 32.7061 9.8273 32.7061 10.2652 32.7061C13.1179 32.7061 15.9731 31.6075 18.1677 30.0711C15.315 30.0711 13.1204 28.0967 12.2421 25.6819C12.68 25.6819 13.1204 25.9021 13.3407 25.9021C13.9988 25.9021 14.4392 25.9021 15.0974 25.6819C12.2447 25.0238 10.0501 22.609 10.0501 19.5361C10.9284 19.974 11.8068 20.1942 12.9028 20.4144C11.1461 18.878 10.0501 17.1213 10.0501 14.9267C10.0501 13.8281 10.2703 12.7321 10.9284 11.8538C14.0013 15.5848 18.6107 18.2198 23.8782 18.4375C23.8782 17.9996 23.658 17.5592 23.658 16.901C23.658 13.3902 26.5107 10.535 30.024 10.535C31.7807 10.535 33.5349 11.1931 34.6334 12.5093C36.1699 12.2891 37.4861 11.631 38.5847 10.9729C38.1468 12.5093 37.0482 13.6079 35.732 14.4837C37.0482 14.2635 38.1468 14.0458 39.463 13.3851C38.5796 14.7065 37.4835 15.8025 36.385 16.6808Z" fill="white"/>
</svg>

<svg xmlns="http://www.w3.org/2000/svg" width="47" height="47" fill="none"><path fill="#fff" d="M41.379 0H5.528A5.12 5.12 0 0 0 .406 5.122v35.85a5.12 5.12 0 0 0 5.122 5.122h35.85a5.12 5.12 0 0 0 5.122-5.122V5.122A5.12 5.12 0 0 0 41.379 0Zm-4.994 16.68v.88c0 8.34-6.366 17.999-18 17.999-3.51 0-6.804-1.099-9.656-2.853h1.536c2.853 0 5.708-1.099 7.903-2.635-2.853 0-5.048-1.974-5.926-4.39.438 0 .878.221 1.099.221.658 0 1.098 0 1.756-.22-2.852-.658-5.047-3.073-5.047-6.146.878.438 1.757.658 2.853.878-1.757-1.536-2.853-3.293-2.853-5.487 0-1.099.22-2.195.878-3.073 3.073 3.73 7.683 6.366 12.95 6.584 0-.438-.22-.879-.22-1.537a6.37 6.37 0 0 1 6.366-6.366c1.757 0 3.51.658 4.61 1.974 1.536-.22 2.852-.878 3.95-1.536-.437 1.536-1.536 2.635-2.852 3.51 1.316-.22 2.415-.437 3.731-1.098-.883 1.322-1.98 2.418-3.078 3.296Z"/></svg>
